X:5
T:Fancy Hornpipe
R:reel
O:traditional Cape Breton
D:Joe Cormier, The Dances Down Home
Z:Paul Stewart Cranford (P.S.C.), <http://www.cranfordpub.com>
L:1/8
Q:333
M:C|
K:A
zB|A2 cB ABAF|E2 C2 C2 E2|AGAB Acec|BABc BdcB|
A2 cB ABAF|E2 C2 C2 cd|1efec BAcB|A2 c2 A2 :|2ecAc dBGB|A2 c2 A2||
|:cd|ece=g fdfa|efec A2 Bc|defe dcBA|GABG E2 ef| 
ece=g fdfa|gegb a2 c2|dcde fefg|a2 A2 A2:|
